Obsidian-SemiLight/actions/22s/edit-select-none.svg

<svg viewBox="0 0 22 22" xmlns="http://www.w3.org/2000/svg"><path d="m3 3v1 3h1v-3h3v-1h-3zm12 0v1h3v3h1v-4zm-10 2v5h5v-5zm7 0v5h5v-5zm-6 1h3v3h-3zm7 0h3v3h-3zm-8 6v5h5v-5zm1 1h3v3h-3zm-3 2v4h1 3v-1h-3v-3z" fill="#4d4d4d"/><path d="m13.99023 13-.99023.99023 2.00976 2.00977-2.00976 2.00977.99023.99023 2.00977-2.00977 2.00976 2.00977.99024-.99023-2.00977-2.00977 2.00977-2.00977-.99024-.99023-2.00976 2.00977z" fill="#da4453"/></svg>

<svg xmlns="http://www.w3.org/2000/svg" viewBox="0 0 22 22">
  <defs id="defs3051">
    <style type="text/css" id="current-color-scheme">
      .ColorScheme-Text {
        color:#4d4d4d;
      }
      </style>
  </defs>
 <path 
    style="fill:currentColor;fill-opacity:1;stroke:none" 
     d="M 3 3 L 3 4 L 3 7 L 4 7 L 4 4 L 7 4 L 7 3 L 4 3 L 3 3 z M 15 3 L 15 4 L 18 4 L 18 7 L 19 7 L 19 3 L 15 3 z M 5 5 L 5 10 L 10 10 L 10 5 L 5 5 z M 12 5 L 12 10 L 17 10 L 17 5 L 12 5 z M 6 6 L 9 6 L 9 9 L 6 9 L 6 6 z M 13 6 L 16 6 L 16 9 L 13 9 L 13 6 z M 5 12 L 5 17 L 10 17 L 10 12 L 5 12 z M 6 13 L 9 13 L 9 16 L 6 16 L 6 13 z M 3 15 L 3 19 L 4 19 L 7 19 L 7 18 L 4 18 L 4 15 L 3 15 z "
    class="ColorScheme-Text"
    />  
  <path
     style="fill:#da4453"
     d="M 13.99023,13 13,13.99023 15.00976,16 13,18.00977 13.99023,19 16,16.99023 18.00976,19 19,18.00977 16.99023,16 19,13.99023 18.00976,13 16,15.00977 13.99023,13" />
</svg>
